X:1
T:James Gibb editions
T:O come, all ye faithful - Barnby
%%score [ ( 1 2 ) ( 3 4 5 ) ]
L:1/8
Q:1/4=100
M:4/4
K:G
V:1 treble nm="Midi_74"
V:2 treble 
V:3 bass nm="Midi_74"
V:4 bass 
V:5 bass 
V:1
"^O come, all ye faithful""^Joseph Barnby\n(1838-96)""^Irregular" G2 | G4 F2 E2 | F4 D4 | %3
w: O|come, all ye|faith- ful,|
w: |||
w: |God of *|God, *|
 G2 G2 F2 G2 | A4 A2 A2 | B4 ^c2 e2 | (d2 A2) F2 ^G2 |[M:4/4] A4 E4 | F8 | F4 B2 F2 | A4 G4 | %11
w: joy- ful and tri-|um- phant, O|come ye, O|come * ye to|Beth- le-|hem.|Come and be-|hold Him,|
w: ||||||||
w: light * of *|light, * *|Lo, He ab-|hors * not the|Vir- gin's|womb.|Ve- ry *|God, Be-|
 B2 A2 G2 F2 | F4"^1" E2 || F2 | G2 G2 F2 E2 | F4 D2 D2 | D2 G2 F2 G2 | A4 A2 A2 | B2 A2 G2 F2 | %19
w: born the King of|An- gels.|||dore Him, O|come, let us a-|dore Him, O|come, let us a-|
w: ||O|come, let us a-|||||
w: got- ten, not cre-|a- ted.|||||||
 (F4 E2) G2 | G4 A4 | G8 || c4 B4 |] %23
w: dore * Him,|Christ the|Lord.|A- men.|
w: ||||
w: ||||
V:2
 D2 | D4 C2 C2 | C4 C4 | B,2 D2 ^C2 C2 | D4 D2 C2 | B,4 E2 ^C2 | D4 D2 D2 |[M:4/4] D4 ^C4 | D8 | %9
 ^D4 F2 D2 | E4 E4 | G2 F2 E2 D2 | D4 ^C2 || C2 | B,2 D2 C2 C2 | C4 C2 C2 | B,2 D2 ^C2 C2 | %17
 D4 D2 C2 | B,2 C2 D2 ^D2 | (^D4 E2) E2 | !courtesy!=D4 (E2 F2) | G8 || E4 D4 |] %23
V:3
 B,2 |"^Ped." B,4 A,2 G,2 | A,4 A,4 | G,2 B,2 A,2 G,2 | G,4 F,2 F,2 | G,4 A,2 A,2 | A,4 D,2 E,2 | %7
[M:4/4] F,4 G,4 | F,8 | B,4 B,2 B,2 | B,4 B,4 | G,2 A,2 B,2 B,2 | A,4 A,2 || A,2 | %14
"^Ped." G,2 B,2 A,2 G,2 | %15
"^3.  See how the shepherds, summoned to His cradle,\nLeaving their flocks, draw nigh to gaze;\nWe too will thither bend our joyful footsteps;\n\n4.  Lo! star led chieftains, Magi, Christ adoring,\nOffer Him incense, gold, and myrrh;\nWe to the Christ Child bring our hearts’ oblations.\nO come, let us adore Him…\n\n5.  Child, for us sinners, poor and in the manger,\nWe would embrace Thee, with love and awe;\nWho would not love Thee, loving us so dearly?\n\n6.  Sing, choirs of angels, sing in exultation;\nSing, all ye citizens of heaven above!\nGlory to God, in the highest;\n\n7.  Yea, Lord, we greet Thee, born this happy morning;\nJesu, to Thee be glory given;\nWord of the Father, now in flesh appearing." A,4 A,2 A,2 | %16
 G,2 B,2 A,2 G,2 | G,4 F,2 F,2 | G,2 G,2 G,2 A,2 | (A,4 G,2) A,2 | B,4 C4 | B,8 || G,4 G,4 |] %23
V:4
 G,2 | G,4 D,2 E,2 | D,4- F,4 | G,2 G,2 E,2 E,2 | D,4 D,2 D,2 | G,,4 G,2 G,2 | F,4 B,,2 B,,2 | %7
[M:4/4] A,,4 A,,4 | D,8 | B,,4 ^D,2 B,,2 | E,4 E,4 | G,,2 G,,2 G,,2 ^G,,2 | A,,4 A,,2 || D,2 | %14
 G,2 G,2 D,2 E,2 | D,4 F,2 F,2 | G,2 G,2 E,2 E,2 | D,4 D,2 D,2 | G,,2 A,,2 B,,2 B,,2 | C,6 ^C,2 | %20
 D,4 D,4 | G,,8 || C,4 G,,4 |] %23
V:5
 x2 | G,,8- | G,,8 | G,,2 x6 | x8 | x8 | x8 |[M:4/4] x8 | x8 | x8 | x8 | x8 | x6 || x2 | G,,8- | %15
 G,,8 | G,,2 x6 | x8 | x8 | x8 | x8 | x8 || x8 |] %23

